src/images_karasa_jaga_svg/cmd/sc_fontworkshapetype.fontwork-slant-down.svg

<svg height="16" viewBox="0 0 16 16" width="16" xmlns="http://www.w3.org/2000/svg" xmlns:xlink="http://www.w3.org/1999/xlink"><linearGradient id="a" gradientUnits="userSpaceOnUse" x1="56" x2="56" y1="128" y2="0"><stop offset="0" stop-color="#fff"/><stop offset=".46428573" stop-color="#fff"/><stop offset=".78125" stop-color="#f1f1f1"/><stop offset=".90625" stop-color="#eaeaea"/><stop offset="1" stop-color="#dfdfdf"/></linearGradient><linearGradient id="b" gradientUnits="userSpaceOnUse" x1="56" x2="56" y1="128" y2="0"><stop offset="0" stop-color="#7c9fcf"/><stop offset=".5" stop-color="#7c9ece"/><stop offset="1" stop-color="#7b9dcf"/></linearGradient><g transform="matrix(-.125 0 0 .125 16 .000011)"><path d="m119.76562 16.046875a7.9574192 7.9574192 0 0 0 -2.98437.677734c-38.272188 16.933358-72.275558 29.391962-111.6621094 44.69336a7.9574192 7.9574192 0 0 0 -5.07617185 7.416015v35.166016a7.9574192 7.9574192 0 0 0 10.91406225 7.38672l111.999999-44.833986a7.9574192 7.9574192 0 0 0 5-7.386718v-35.166016a7.9574192 7.9574192 0 0 0 -8.19141-7.953125z" fill="url(#b)"/><path d="m120 59.16617-112 44.83383v-35.166164c39.303823-15.269259 73.454245-27.77944 112-44.833836z" fill="url(#a)"/></g></svg>

<?xml version="1.0" encoding="UTF-8" standalone="no"?>
<!-- Created with Inkscape (http://www.inkscape.org/) -->

<svg
   xmlns:dc="http://purl.org/dc/elements/1.1/"
   xmlns:cc="http://creativecommons.org/ns#"
   xmlns:rdf="http://www.w3.org/1999/02/22-rdf-syntax-ns#"
   xmlns:svg="http://www.w3.org/2000/svg"
   xmlns="http://www.w3.org/2000/svg"
   xmlns:xlink="http://www.w3.org/1999/xlink"
   xmlns:sodipodi="http://sodipodi.sourceforge.net/DTD/sodipodi-0.dtd"
   xmlns:inkscape="http://www.inkscape.org/namespaces/inkscape"
   version="1.1"
   id="svg2"
   width="128"
   height="128"
   viewBox="0 0 128 128"
   sodipodi:docname="sc_fontworkshapetype.fontwork-slant-down.svg"
   inkscape:export-filename="/home/rizmut/Dokumen/Rizmut/Github/libreoffice-style-karasa-jaga/build/images_karasa_jaga/cmd/sc_fontworkshapetype.fontwork-slant-down.png"
   inkscape:export-xdpi="12"
   inkscape:export-ydpi="12"
   inkscape:version="0.92.3 (unknown)">
  <metadata
     id="metadata8">
    <rdf:RDF>
      <cc:Work
         rdf:about="">
        <dc:format>image/svg+xml</dc:format>
        <dc:type
           rdf:resource="http://purl.org/dc/dcmitype/StillImage" />
        <dc:title></dc:title>
      </cc:Work>
    </rdf:RDF>
  </metadata>
  <defs
     id="defs6">
    <linearGradient
       id="linearGradient7422">
      <stop
         style="stop-color:#7c9fcf;stop-opacity:1"
         offset="0"
         id="stop7424" />
      <stop
         id="stop5348"
         offset="0.5"
         style="stop-color:#7c9ece;stop-opacity:1" />
      <stop
         id="stop7426"
         offset="1"
         style="stop-color:#7b9dcf;stop-opacity:1" />
    </linearGradient>
    <linearGradient
       id="linearGradient3369">
      <stop
         id="stop3372"
         offset="0"
         style="stop-color:#ffffff;stop-opacity:1;" />
      <stop
         style="stop-color:#ffffff;stop-opacity:1;"
         offset="0.46428573"
         id="stop3374" />
      <stop
         style="stop-color:#f1f1f1;stop-opacity:1;"
         offset="0.78125"
         id="stop3376" />
      <stop
         id="stop3378"
         offset="0.90625"
         style="stop-color:#eaeaea;stop-opacity:1;" />
      <stop
         id="stop3384"
         offset="1"
         style="stop-color:#dfdfdf;stop-opacity:1;" />
    </linearGradient>
    <linearGradient
       inkscape:collect="always"
       xlink:href="#linearGradient3369"
       id="linearGradient1620"
       x1="56"
       y1="128"
       x2="56"
       y2="0"
       gradientUnits="userSpaceOnUse" />
    <linearGradient
       inkscape:collect="always"
       xlink:href="#linearGradient7422"
       id="linearGradient1624"
       gradientUnits="userSpaceOnUse"
       x1="56"
       y1="128"
       x2="56"
       y2="0" />
  </defs>
  <sodipodi:namedview
     pagecolor="#ffffff"
     bordercolor="#666666"
     borderopacity="1"
     objecttolerance="10"
     gridtolerance="10"
     guidetolerance="10"
     inkscape:pageopacity="0"
     inkscape:pageshadow="2"
     inkscape:window-width="1366"
     inkscape:window-height="706"
     id="namedview4"
     showgrid="true"
     inkscape:snap-page="true"
     inkscape:snap-global="false"
     inkscape:zoom="2.4494288"
     inkscape:cx="26.667362"
     inkscape:cy="67.319333"
     inkscape:window-x="0"
     inkscape:window-y="0"
     inkscape:window-maximized="1"
     inkscape:current-layer="svg2">
    <inkscape:grid
       type="xygrid"
       id="grid812"
       spacingx="8"
       spacingy="8"
       empspacing="2" />
  </sodipodi:namedview>
  <g
     id="g1630"
     transform="matrix(-1,0,0,1,128,0)">
    <path
       d="m 119.76562,16.046875 a 7.9574192,7.9574192 0 0 0 -2.98437,0.677734 C 78.509062,33.657967 44.505692,46.116571 5.1191406,61.417969 A 7.9574192,7.9574192 0 0 0 0.04296875,68.833984 V 104 A 7.9574192,7.9574192 0 0 0 10.957031,111.38672 L 122.95703,66.552734 a 7.9574192,7.9574192 0 0 0 5,-7.386718 V 24 a 7.9574192,7.9574192 0 0 0 -8.19141,-7.953125 z"
       id="path1622"
       style="opacity:1;fill:url(#linearGradient1624);fill-opacity:1;stroke:none;stroke-width:6;stroke-linecap:round;stroke-linejoin:bevel;stroke-miterlimit:4;stroke-dasharray:none;stroke-dashoffset:0;stroke-opacity:1"
       inkscape:original="M 120 24 C 81.454245 41.054396 47.303823 53.564725 8 68.833984 L 8 104 L 120 59.166016 L 120 24 z "
       inkscape:radius="7.9566236"
       sodipodi:type="inkscape:offset" />
    <path
       style="opacity:1;fill:url(#linearGradient1620);fill-opacity:1;stroke:none;stroke-width:6;stroke-linecap:round;stroke-linejoin:bevel;stroke-miterlimit:4;stroke-dasharray:none;stroke-dashoffset:0;stroke-opacity:1"
       d="M 120,59.16617 8,104 V 68.833836 C 47.303823,53.564577 81.454245,41.054396 120,24 Z"
       id="rect3937"
       inkscape:connector-curvature="0"
       sodipodi:nodetypes="ccccc" />
  </g>
</svg>
